assets/svg/wallet_login_recovery.svg

<svg width="48" height="48" viewBox="0 0 48 48" fill="none" xmlns="http://www.w3.org/2000/svg">
<path d="M43.7336 18.6614L42.2733 17.2011C41.9181 16.8459 41.3398 16.8459 40.9845 17.2011L39.8034 18.3805L37.2319 20.952V9.49556C37.2319 8.52876 36.4454 7.74219 35.4786 7.74219H33.7355C33.5667 7.74219 33.4293 7.87955 33.4293 8.04842C33.4293 8.21728 33.5667 8.35464 33.7355 8.35464H35.4786C36.1076 8.35464 36.6195 8.86648 36.6195 9.49556V21.5636L35.2502 22.9328V10.234C35.2502 9.97852 35.042 9.77029 34.7865 9.77029H33.7408C33.5719 9.77029 33.4346 9.90765 33.4346 10.0765C33.4346 10.2454 33.5719 10.3827 33.7408 10.3827H34.6377V23.5462L21.7937 36.3902C21.7005 36.483 21.6263 36.5929 21.575 36.7139L19.8846 40.6485C19.8347 40.764 19.8609 40.897 19.9493 40.9863C20.0079 41.0449 20.0867 41.0755 20.1663 41.0755C20.2074 41.0755 20.2485 41.0676 20.287 41.051L24.2216 39.3598C24.3424 39.3073 24.4517 39.2338 24.5445 39.141L34.6386 29.0469V43.4168H9.97505V10.3827H10.8501C11.019 10.3827 11.1564 10.2454 11.1564 10.0765C11.1564 9.90765 11.019 9.77029 10.8501 9.77029H9.82631C9.70339 9.77052 9.58558 9.81945 9.49866 9.90636C9.41175 9.99328 9.36282 10.1111 9.36259 10.234V43.5647C9.36259 43.8202 9.57082 44.0284 9.82631 44.0284H34.7874C35.0428 44.0284 35.2511 43.8202 35.2511 43.5647V28.4327L36.6204 27.0634V44.2489C36.6204 44.878 36.1085 45.3898 35.4794 45.3898H9.13423C8.50515 45.3898 7.99331 44.878 7.99331 44.2489V9.49556C7.99331 8.86648 8.50515 8.35464 9.13423 8.35464H10.8878C11.0566 8.35464 11.194 8.21728 11.194 8.04842C11.194 7.87955 11.0566 7.74219 10.8878 7.74219H9.13423C8.16743 7.74219 7.38086 8.52876 7.38086 9.49556V44.2489C7.38086 45.2157 8.16743 46.0023 9.13423 46.0023H35.4794C36.4462 46.0023 37.2328 45.2157 37.2328 44.2489V26.4518L42.5507 21.134L42.5533 21.1313L43.7336 19.951C44.0888 19.5949 44.0888 19.0166 43.7336 18.6614ZM41.4719 21.3457L40.5304 20.4043L39.589 19.4628L40.0177 19.0341L41.9015 20.9179L41.4719 21.3457ZM23.3021 37.1987C23.0351 36.9702 22.7384 36.7789 22.4201 36.63L39.155 19.8951L39.8804 20.6204L23.3021 37.1987ZM22.0588 37.1374L22.1515 37.1803C22.8575 37.5083 23.4247 38.0755 23.7527 38.7814L23.7955 38.8742L22.1962 39.561L21.3711 38.7359L22.0588 37.1374ZM21.1112 39.3423L21.5916 39.8226L20.7499 40.1839L21.1112 39.3423ZM24.3039 38.5137C24.1547 38.1955 23.9634 37.8989 23.7352 37.6318L40.3135 21.0535L41.0388 21.7788L24.3039 38.5137ZM43.3005 19.5171L42.3372 20.4804L41.0432 19.1864C41.7046 19.357 42.4273 19.2231 42.9899 18.783L43.3005 19.0936C43.3564 19.1499 43.3878 19.226 43.3878 19.3053C43.3878 19.3847 43.3564 19.4608 43.3005 19.5171Z" fill="#9A9A9A"/>
<path d="M23.8131 23.1309H13.1869C13.0838 23.1309 13 23.2665 13 23.4333C13 23.6001 13.0838 23.7357 13.1869 23.7357H23.8131C23.9162 23.7357 24 23.6001 24 23.4333C24 23.2665 23.9162 23.1309 23.8131 23.1309ZM24 27.5653C24 27.3985 23.9162 27.2629 23.8131 27.2629H13.1869C13.0838 27.2629 13 27.3985 13 27.5653C13 27.7321 13.0838 27.8677 13.1869 27.8677H23.8131C23.9162 27.8677 24 27.7321 24 27.5653ZM13.1869 31.394C13.0838 31.394 13 31.5297 13 31.6964C13 31.8632 13.0838 31.9989 13.1869 31.9989H21.2969C21.4 31.9989 21.4838 31.8632 21.4838 31.6964C21.4838 31.5297 21.4 31.394 21.2969 31.394H13.1869Z" fill="#9A9A9A"/>
<path fill-rule="evenodd" clip-rule="evenodd" d="M13.2988 11C13.2988 6.02963 17.3285 2 22.2988 2C27.2692 2 31.2988 6.02963 31.2988 11C31.2988 15.9704 27.2692 20 22.2988 20C17.3285 20 13.2988 15.9704 13.2988 11ZM18.1228 16.1854C18.3384 16.3945 18.5974 16.499 18.8999 16.499H25.4995C25.8016 16.4994 26.0604 16.395 26.276 16.186C26.4916 15.9769 26.5994 15.7257 26.5994 15.4324V10.0995C26.5998 9.80651 26.4921 9.55551 26.2766 9.34646C26.061 9.1374 25.8019 9.03288 25.4995 9.03288H24.9495V7.96629C24.9499 7.22892 24.6819 6.60016 24.1455 6.08002C23.6091 5.55988 22.9605 5.29981 22.1997 5.29981C21.4393 5.29945 20.7909 5.55934 20.2545 6.07948C19.7181 6.59963 19.4499 7.22856 19.4499 7.96629V9.03288H18.8999C18.5978 9.03252 18.339 9.13687 18.1234 9.34592C17.9078 9.55498 17.8 9.80616 17.8 10.0995V15.4324C17.7996 15.7254 17.9072 15.9764 18.1228 16.1854ZM22.9768 13.519C22.7612 13.728 22.5022 13.8325 22.1997 13.8325C21.8976 13.8329 21.6387 13.7286 21.4231 13.5195C21.2076 13.3104 21.0998 13.0593 21.0998 12.766C21.0994 12.473 21.207 12.222 21.4226 12.0129C21.6382 11.8039 21.8972 11.6994 22.1997 11.6994C22.5018 11.699 22.7607 11.8034 22.9762 12.0124C23.1918 12.2215 23.2996 12.4726 23.2996 12.766C23.3 13.0589 23.1924 13.3099 22.9768 13.519ZM23.8496 9.03288H20.5498V7.96629C20.5498 7.52187 20.7102 7.14412 21.031 6.83303C21.3518 6.52194 21.7414 6.3664 22.1997 6.3664C22.658 6.3664 23.0476 6.52194 23.3684 6.83303C23.6892 7.14412 23.8496 7.52187 23.8496 7.96629V9.03288Z" fill="#0166FF"/>
</svg>

<svg xmlns="http://www.w3.org/2000/svg" width="48" height="48" fill="none"><path fill="#9A9A9A" d="m43.734 18.661-1.46-1.46a.913.913 0 0 0-1.29 0l-1.18 1.18-2.572 2.571V9.496c0-.967-.787-1.754-1.753-1.754h-1.743a.307.307 0 0 0 0 .613h1.743c.629 0 1.14.511 1.14 1.14v12.069l-1.369 1.369V10.234a.464.464 0 0 0-.464-.464h-1.045a.307.307 0 0 0 0 .613h.897v13.163L21.794 36.39a1 1 0 0 0-.219.324l-1.69 3.935a.307.307 0 0 0 .402.402l3.935-1.691q.182-.08.322-.219L34.64 29.047v14.37H9.975V10.383h.875a.307.307 0 0 0 0-.613H9.826a.465.465 0 0 0-.463.464v33.33c0 .256.208.464.463.464h24.961a.465.465 0 0 0 .464-.463V28.433l1.37-1.37V44.25c0 .629-.513 1.14-1.142 1.14H9.134c-.629 0-1.14-.511-1.14-1.14V9.496c0-.63.511-1.141 1.14-1.141h1.754a.307.307 0 0 0 0-.613H9.134c-.967 0-1.753.787-1.753 1.754v34.753c0 .967.786 1.753 1.753 1.753H35.48c.967 0 1.754-.786 1.754-1.753V26.452l5.318-5.318.002-.003 1.18-1.18a.914.914 0 0 0 0-1.29m-2.262 2.685-.942-.942-.941-.941.429-.429 1.883 1.884zm-18.17 15.853a4 4 0 0 0-.882-.569l16.735-16.735.725.725zm-1.243-.062.092.043a3.3 3.3 0 0 1 1.602 1.601l.043.093-1.6.687-.825-.825zm-.948 2.205.48.48-.841.362zm3.193-.828a4 4 0 0 0-.569-.882l16.579-16.578.725.725zM43.3 19.517l-.964.963-1.294-1.294c.662.171 1.384.037 1.947-.403l.31.31a.3.3 0 0 1 0 .424"/><path fill="#9A9A9A" d="M23.813 23.13H13.187c-.103 0-.187.137-.187.303 0 .167.084.303.187.303h10.626c.103 0 .187-.136.187-.303s-.084-.302-.187-.302M24 27.566c0-.167-.084-.302-.187-.302H13.187c-.103 0-.187.135-.187.302s.084.303.187.303h10.626c.103 0 .187-.136.187-.303m-10.813 3.829c-.103 0-.187.136-.187.302 0 .167.084.303.187.303h8.11c.103 0 .187-.136.187-.303s-.084-.302-.187-.302z"/><path fill="#0166FF" fill-rule="evenodd" d="M13.299 11a9 9 0 1 1 18 0 9 9 0 0 1-18 0m4.824 5.185q.323.315.777.314h6.6q.452 0 .776-.313.323-.314.323-.754V10.1a1 1 0 0 0-.322-.754 1.08 1.08 0 0 0-.777-.313h-.55V7.966a2.53 2.53 0 0 0-.805-1.886A2.7 2.7 0 0 0 22.2 5.3q-1.141 0-1.945.78a2.53 2.53 0 0 0-.805 1.886v1.067h-.55q-.453 0-.777.313-.323.313-.323.754v5.332q0 .44.323.753m4.854-2.666a1.08 1.08 0 0 1-.777.313q-.453 0-.777-.312a1.01 1.01 0 0 1-.323-.754q0-.44.323-.753.322-.315.777-.314.453 0 .776.313.324.314.324.754t-.323.753m.873-4.486h-3.3V7.966q0-.666.481-1.133.48-.467 1.169-.467.688 0 1.168.467.482.467.482 1.133z" clip-rule="evenodd"/></svg>
